!!!COM:	Martini, Johannes
!!!CDT:	~1440///-~1497//
!!!OPR:	Missa Cucu
!!!ONM:	3
!!!OTL:	Credo
!!!AGN:	Mass; Credo
!!!SCT:	Mar1003c
!!!SCA:	Mar1003c
!!!voices:	4
**kern	**kern	**kern	**kern
*staff4	*staff3	*staff2	*staff1
*Ivox	*Ivox	*Ivox	*Ivox
*Ivox	*Ivox	*Ivox	*Ivox
*I"Bassus	*I"Tenor	*I"Altus	*I"Superius
*I'B	*I'T	*I'A	*I'S
*I'B	*I'T	*I'A	*I'S
*>[A,B,C]	*>[A,B,C]	*>[A,B,C]	*>[A,B,C]
*>A	*>A	*>A	*>A
*clefF4	*clefGv2	*clefGv2	*clefG2
*k[]	*k[]	*k[]	*k[]
*M3/1	*M3/1	*M3/1	*M3/1
*met(O)	*met(O)	*met(O)	*met(O)
!!section: Patrem omnipotentem
!!!OMD: Patrem omnipotentem
=1-	=1-	=1-	=1-
0D	0.r	0d	0a
1E	.	2B\	1g
.	.	2c\	.
=2	=2	=2	=2
1.D	0.r	1d	1.f
.	.	2D/	.
2C/	.	2E/	2e/
1BB-	.	2F/	1d
.	.	2G/	.
=3	=3	=3	=3
1AA	0.r	2A/	2c/
.	.	1c	1e
2C/	.	.	.
2D\	.	4B\	4d/
.	.	4A/	4c/
1E	.	1G#i	1B
=4	=4	=4	=4
2r	0.r	1A	1A
1AA	.	.	.
.	.	1c	2r
2AA/	.	.	2e/
2D\	.	2d\	2f/
2C/	.	2e\	2g/
=5	=5	=5	=5
2F\	0.r	2A/	2a/
1G	.	1d	2.b\
.	.	.	4a/
2A\	.	2c\	2.a/
1E	.	1B	.
.	.	.	8g#i/L
.	.	.	8f#i/J
.	.	.	2g#i/
=6	=6	=6	=6
[0.AA	0.c	1A	0.a
.	.	1r	.
.	.	1A	.
=7	=7	=7	=7
0.AA]	[0.A	1.c	1r
.	.	.	1r
.	.	2d\	.
.	.	1e	[1a
=8	=8	=8	=8
0.D	0.A]	1f	1a]
.	.	1.d	0f
.	.	2c\	.
=9	=9	=9	=9
0C	[0.c	0e	2e/
.	.	.	2.g/
.	.	.	4f/
.	.	.	4e/
.	.	.	4d/
[1F	.	[1A	2c/
.	.	.	[2a/
=10	=10	=10	=10
1F]	0.c]	1A]	2a/]
.	.	.	4g/
.	.	.	4f/
1E	.	1r	1.g
1C	.	1e	.
.	.	.	2e/
=11	=11	=11	=11
1D	[0.A	1d	1f
0AA	.	1.c	0e
.	.	4B\	.
.	.	4c\	.
=12	=12	=12	=12
0.D	1A]	1d	1.d
.	0F	0A	.
.	.	.	1.f
=13	=13	=13	=13
1C	0.G	1r	1.e
0BB	.	0D	.
.	.	.	2d/
.	.	.	1d
=14	=14	=14	=14
0AA	0.A	2E/	4c/
.	.	.	4B/
.	.	2F/	2.c/
.	.	2E/	.
.	.	.	4d/
.	.	2.A/	2e/
2D\	.	.	2f/
.	.	4B\	.
2C/	.	2c\	2e/
=15	=15	=15	=15
2D\	0.r	4A/	1a
.	.	2c\	.
2AA/	.	.	.
.	.	4d\	.
2C/	.	2e\	2g/
2D\	.	2.d\	2f/
1A	.	.	1e
.	.	4c#i\	.
.	.	4c#i\	.
.	.	4B\	.
=16	=16	=16	=16
0D	1r	0d	1d
.	1r	.	1f
1C	1c	1e	1g
=17	=17	=17	=17
1F	0.A	1c	1a
0D	.	0F	2a/
.	.	.	1f
.	.	.	2f/
=18	=18	=18	=18
0GG	0B-	0G	0d
1C	1G	[1E	[1e
=19	=19	=19	=19
0AA	0A	1E]	1e]
.	.	1A	1c
1BB-	1D	1r	1d
=20	=20	=20	=20
1GG	1G	1d	2B/
.	.	.	2.d/
1D	2F/	1f	.
.	.	.	4c/
.	1A	.	2d/
1E	.	2e\	1B
.	2G/	[2e\	.
=21	=21	=21	=21
0.AA	1.A	4e\]	2A/
.	.	4d\	.
.	.	4c\	2.c/
.	.	4B\	.
.	.	1A	.
.	.	.	4d/
.	4G/	.	2.e/
.	4F/	.	.
.	1E	2r	.
.	.	.	4B/
.	.	2A/	2c/
=22	=22	=22	=22
1BB-	0D	2F/	1.d
.	.	2.B-i\	.
0GG	.	.	.
.	.	4A/	.
.	.	4G/	2c/
.	.	4F/	.
.	1d	1G	1B
=23	=23	=23	=23
0AA	0.c	2E/	1A
.	.	2.A/	.
.	.	.	2r
.	.	4B\	.
.	.	4c\	1a
.	.	4d\	.
1C	.	1e	.
.	.	.	2g/
=24	=24	=24	=24
2.D\	0.A	1d	2f/
.	.	.	4e/
4E\	.	.	4d/
1F	.	1r	1c
2D\	.	2.A/	2d/
[2D\	.	.	2f/
.	.	8G/L	.
.	.	8F/J	.
=25	=25	=25	=25
2D\]	0.r	1G	1e
2C/	.	.	.
2D\	.	2F/	1A
2C/	.	2E/	.
2D\	.	2F/	2r
2BB/	.	2G/	2d/
=26	=26	=26	=26
2AA/	0.r	1A	2c/
1D	.	.	2.f/
.	.	2B\	.
.	.	.	8e/L
.	.	.	8d/J
2C/	.	2.c\	2.e/
1AA	.	.	.
.	.	4B\	4d/
.	.	4A/	4c/
.	.	4G/	4B/
=27	=27	=27	=27
1D	0.r	2F/	2A/
.	.	4D/	2.B/
.	.	2F/	.
2C/	.	.	.
.	.	4E/	4A/
2AA/	.	1E	1A
1BB	.	.	.
.	.	2D/	2G#i/
=28	=28	=28	=28
[0.AA	1r	1E	2.A/
.	.	.	4B/
.	1r	0A	2c/
.	.	.	2d/
.	[1c	.	2e/
.	.	.	2f/
=29	=29	=29	=29
1AA]	1c]	0e	2e/
.	.	.	1a
0E	0B	.	.
.	.	.	4g#i/
.	.	.	4f#i/
.	.	1e	1g#i
=30	=30	=30	=30
1.AA	0.A	2.c\	1a
.	.	4d\	.
.	.	2e\	2a/
1.D	.	2f\	2a/
.	.	1d	2f/
.	.	.	2f/
=31	=31	=31	=31
1E	1G	1B	1.e
0AA	0A	2.c\	.
.	.	.	2e/
.	.	4d\	.
.	.	1e	1c
=32	=32	=32	=32
0D	0.F	2r	2d/
.	.	1A	2.f/
.	.	.	4e/
.	.	2A/	4d/
.	.	.	4c/
1BB-	.	1B-	1d
=33	=33	=33	=33
1C	1E	1G	1e
1AA	[0A	1r	1.e
[1D	.	[1F	.
.	.	.	2d/
=34	=34	=34	=34
1D]	0A]	1F]	2d/
.	.	.	4c/
.	.	.	4d/
1AA	.	0E	2e/
.	.	.	4d/
.	.	.	4c/
1r	1G	.	1B
=35	=35	=35	=35
1AA	1c	1.A	1A
2C/	1A	.	2r
2D\	.	2F/	2a/
1BB	1d	1G	2b\
.	.	.	2dd\
=36	=36	=36	=36
0AA	2e\	1A	2cc\
.	1c	.	2.a/
.	.	1c	.
.	.	.	4g/
.	1A	.	4f/
.	.	.	4e/
1D	.	2d\	1f
.	2d\	[2A/	.
=37	=37	=37	=37
1AA	2c\	4A/]	1e
.	.	4G/	.
.	2A/	1F	.
2r	1c	.	2a/
2C/	.	2E/	2.a/
2D\	1B	2F/	.
.	.	.	8g/L
.	.	.	8f/J
2E\	.	2G/	2g/
=38	=38	=38	=38
0AA	1A	2E/	0a
.	.	2.A/	.
.	1c	.	.
.	.	4B\	.
.	.	2c\	.
2r	2B\	2d\	2g/
[2AA/	2A/	2e\	[2a/
=39	=39	=39	=39
4AA/]	1c	1e	2a/]
4BB/	.	.	.
2C/	.	.	2g/
2D\	1A	1d	1f
2F\	.	.	.
2E\	2r	1G	2g/
2C/	[2c\	.	[2e/
=40	=40	=40	=40
2AA/	2c\]	1A	2e/]
2C/	2c\	.	2e/
1D	1A	1F	2d/
.	.	.	2f/
1C	2r	1G	2.e/
.	2c\	.	.
.	.	.	4f/
=41	=41	=41	=41
2C/	1c	1.E	2g/
1AA	.	.	1a
.	1A	.	.
2D\	.	2F/	2b\
2C/	2r	2G/	2.cc\
[2F\	[2c\	[2A/	.
.	.	.	[4a/
=42	=42	=42	=42
4F\]	2c\]	4A/]	4a/]
4E\	.	4G/	8g/L
.	.	.	8f/J
2C/	2c\	2E/	2g/
1D	1A	1F	1f
1C	2r	2G/	1e
.	2c\	4G/	.
.	.	[4A/	.
=43	=43	=43	=43
1AA	1c	4A/]	2r
.	.	8G/L	.
.	.	8F/J	.
.	.	2E/	2e/
1r	1A	1F	2c/
.	.	.	2d/
1r	1r	2E/	2e/
.	.	[2A/	4d/
.	.	.	4c/
=44	=44	=44	=44
2r	0.r	2A/]	1B
2E\	.	2G#i/	.
2C/	.	1A	2A/
2D\	.	.	4r
.	.	.	2a/
2E\	.	1r	.
.	.	.	4g/
4D\	.	.	4f/
4C/	.	.	4e/
=45	=45	=45	=45
1BB	0.r	0.r	2.d/
.	.	.	8c/L
.	.	.	8B/J
4AA/	.	.	4c/
2r	.	.	2.f/
2A\	.	.	.
.	.	.	2e/
4G\	.	.	.
4F\	.	.	4d/
4E\	.	.	4g/
=46	=46	=46	=46
2.D\	0.r	0.r	4f/
.	.	.	4.a/
.	.	.	8g/
8C/L	.	.	4f/
8BB/J	.	.	.
2C/	.	.	2e/
2F\	.	.	2.d/
2E\	.	.	.
.	.	.	4c/
4D\	.	.	2B/
4G\	.	.	.
=47	=47	=47	=47
4F\	0.r	1r	2A/
2A\	.	.	.
.	.	.	2r
8G\L	.	.	.
8F\J	.	.	.
2E\	.	2r	2c/
2D\	.	2d\	2d/
1r	.	2.d\	2B/
.	.	.	2A/
.	.	8c\L	.
.	.	8B\J	.
=48	=48	=48	=48
0.r	0.r	2c\	1a
.	.	2d\	.
.	.	2B\	2g/
.	.	2A/	2a/
.	.	4r	2f/
.	.	2A/	.
.	.	.	[2e/
.	.	8G/L	.
.	.	8F/J	.
=49	=49	=49	=49
1r	0.r	2G/	2e/]
.	.	2F/	2d/
2D\	.	2.A/	2r
2.D\	.	.	2f/
.	.	8G/L	.
.	.	8F/J	.
.	.	1E	2g/
8C/L	.	.	.
8BB/J	.	.	.
2C/	.	.	2e/
=50	=50	=50	=50
2D\	0.r	1D	2.f/
2BB/	.	.	.
.	.	.	8e/L
.	.	.	8d/J
1AA	.	2r	4c/
.	.	.	4B/
.	.	2A/	2c/
1r	.	2B\	2d/
.	.	2c\	2e/
=51	=51	=51	=51
2D\	0.r	2d\	2f/
2C/	.	2e\	2g/
1F	.	2c\	2a/
.	.	1d	2a/
1G	.	.	1r
.	.	[2e\	.
=52	=52	=52	=52
2A\	0.r	2e\]	0.r
2r	.	2.c\	.
2AA/	.	.	.
.	.	4A/	.
2GG/	.	2B\	.
1C	.	2G/	.
.	.	[2A/	.
=53	=53	=53	=53
1D	0.r	2A/]	0.r
.	.	2F/	.
2E\	.	2G/	.
2r	.	4A/	.
.	.	2G/	.
2C/	.	.	.
.	.	8F/L	.
.	.	8E/J	.
2D\	.	2F/	.
=54	=54	=54	=54
2E\	0.r	2.E/	0.r
2AA/	.	.	.
.	.	4F/	.
2E\	.	2G/	.
2C/	.	2.A/	.
1BB	.	.	.
.	.	4G#i/	.
.	.	4G#i/	.
.	.	4F#i/	.
=55	=55	=55	=55
[0.AA	1r	2A/	2.A/
.	.	2.A/	.
.	.	.	4B/
.	1r	.	4c/
.	.	4B\	4d/
.	.	4c\	2e/
.	.	4d\	.
.	1c	2e\	2A/
.	.	2A/	2r
=56	=56	=56	=56
0AA]	1A	1.c	1.a
.	1r	.	.
.	.	2d\	2a/
1r	1c	1e	1g
=57	=57	=57	=57
0D	1A	2.d\	1f
.	.	8c\L	.
.	.	8B\J	.
.	1r	2A/	2d/
.	.	2F/	2f/
1C	1c	2G/	1e
.	.	2A/	.
=58	=58	=58	=58
2D\	1A	2F/	2d/
1F	.	2r	2c/
.	1r	2A/	2f/
4E\	.	2.G/	2g/
4D\	.	.	.
1C	1r	.	2e/
.	.	4F/	.
.	.	2E/	2g/
=59	=59	=59	=59
1D	1d	2D/	2f/
.	.	2F/	1a
0AA	0c#	2E/	.
.	.	1.A	4g/
.	.	.	4f/
.	.	.	1e
=60	=60	=60	=60
*	*	*	*M2/1
*	*	*	*met(C)
1D	0d	1A	3d/V
.	.	.	3e/
.	.	.	3f/Z
!LO:N:vis=0	!	!LO:N:vis=0	!
[y1GG	.	[y1G	3g/V
.	.	.	3d/
.	.	.	[3g/Z
=-	=-	=-	=
1GG]yy	1B	1G]yy	6g/]V
.	.	.	6f/
.	.	.	3%2dZ
=61	=61	=61	=61-
!	!LO:N:vis=0	!	!
1AA	[y1A	1E	[3%2.c
=-	=-	=-	=
1FF	1A]yy	1F	3c/V]
.	.	.	3f/
.	.	.	3g/Z
1F	1c	2r	3%2aV
.	.	2F/	.
.	.	.	[3f/Z
=62	=62	=62	=62
1D	1F	2A/	3f/]V
.	.	.	3d/
.	.	2B\	.
.	.	.	3f/Z
!LO:N:vis=0	!LO:N:vis=0	!LO:N:vis=0	!
[y1C	[y1G	[y1c	3e/V
.	.	.	3.g/
.	.	.	6f/Z
=-	=-	=-	=
1C]yy	1G]yy	1c]yy	6e/V
.	.	.	6d/
.	.	.	3.e/
.	.	.	6d/Z
=63	=63	=63	=63-
!	!LO:N:vis=0	!	!
2D\	[y1F	2.A/	3f/V
.	.	.	3d/
!LO:N:vis=1	!	!	!
[y2F	.	.	.
.	.	.	[3f/Z
.	.	4B\	.
=-	=-	=-	=
2F]yy	1F]yy	2c\	6f/]V
.	.	.	6g/
.	.	.	3%2aZ
4E\	.	1d	.
4D\	.	.	.
1E	1G	.	3g/V
.	.	.	3e/
.	.	2c#i\	.
.	.	.	3g/Z
=64	=64	=64	=64
*	*	*	*M3/1
*	*	*	*met(O)
1D	0.A	1d	1f
2AA/	.	2c\	2e/
1D	.	2.d\	2.f/
.	.	4c\	4e/
2C/	.	2A/	2c/
=65	=65	=65	=65
1BB-	1D	4B-\	1d
.	.	2G/	.
.	.	4F/	.
0AA	0E	1A	2c/
.	.	.	2d/
.	.	2r	4e/
.	.	.	2c/
.	.	2A/	.
.	.	.	8B/L
.	.	.	8c/J
=66	=66	=66	=66
1r	0D	2B\	1d
.	.	2A/	.
1D	.	1d	1f
1E	1r	2.B\	1g
.	.	[4c\	.
=67	=67	=67	=67
1F	0c	4c\]	1a
.	.	2A/	.
.	.	8G/L	.
.	.	8F/J	.
2E\	.	2G/	1r
2.F\	.	2.A/	.
.	1A	.	[1a
4E\	.	4G/	.
[2D\	.	2F/	.
=68	=68	=68	=68
2D\]	1r	0E	1a]
4C/	.	.	.
4BB/	.	.	.
1C	1c	.	2g/
.	.	.	2e/
1D	1A	2D/	2f/
.	.	2F/	2d/
=69	=69	=69	=69
1AA	2r	2E/	4c/
.	.	.	2e/
.	2c\	1e	.
.	.	.	4f/
2E\	2B\	.	2g/
2F\	2A/	2d\	2.a/
1E	1B	1e	.
.	.	.	8g#i/L
.	.	.	8f#i/J
.	.	.	2g#i/
=70	=70	=70	=70
0AA	1A	1c	1.a
.	0d	1A	.
.	.	.	4g/
.	.	.	4f/
2r	.	1A	2.e/
2AA/	.	.	.
.	.	.	4c/
=71	=71	=71	=71
2BB/	0G	1r	2d/
1C	.	.	1e
.	.	1r	.
2D\	.	.	4d/
.	.	.	4c/
1E	1G	2r	1B
.	.	[2e\	.
=72	=72	=72	=72
2.AA/	1A	1.e]	0A
4BB/	.	.	.
2C/	1r	.	.
1D	.	2d\	.
.	2.A/	2f\	2r
2C/	.	[2e\	[2a/
.	4B\	.	.
=73	=73	=73	=73
2AA/	2c\	2e\]	1a]
2r	1d	2d\	.
2D\	.	2f\	2f/
2E\	4c\	2e\	2g/
.	4B\	.	.
2F\	2A/	2c\	2a/
2G\	2d\	2r	2b\
=74	=74	=74	=74
1A	2c\	1.c	2a/
.	2.e\	.	2.cc\
1AA	.	.	.
.	4A/	.	4b\
.	2c\	1.e	2.a/
1E	1B	.	.
.	.	.	4g#i/
.	.	.	4g#i/
.	.	.	4f#i/
=75	=75	=75	=75
2.F\	1A	2c\	1.a
.	.	2d\	.
8E\L	.	.	.
8D\J	.	.	.
1C	1c	1e	.
.	.	.	2g/
1D	1A	1d	1f
=76	=76	=76	=76
2C/	0c	2G/	0e
2.AA/	.	2.A/	.
4BB/	.	4G/	.
2C/	.	4F/	.
.	.	4E/	.
1D	1A	1F	1d
=77	=77	=77	=77
0.AAl	0.Al	0.El	0.c 0.e 0.al
!!LO:LB:i:g=z
=78||	=78||	=78||	=78||
*>B	*>B	*>B	*>B
*clefF4	*clefGv2	*clefGv2	*clefG2
*k[]	*k[]	*k[]	*k[]
*M2/1	*M2/1	*M2/1	*M2/1
*met(C|)	*met(C|)	*met(C|)	*met(C|)
!!section: Et incarnatus est
!!!OMD: Et incarnatus est
0r	0r	0A	1.a
.	.	.	4g/
.	.	.	4f/
=79	=79	=79	=79
0r	0r	0G	1e
.	.	.	[1d
=80	=80	=80	=80
0r	0r	1F	1d]
.	.	1E	1g
=81	=81	=81	=81
0r	0r	0D	1f
.	.	.	[1a
=82	=82	=82	=82
0r	0r	1.c	2a/]
.	.	.	2g/
.	.	.	2e/
.	.	[2d\	[2f/
=83	=83	=83	=83
0r	0r	2d\]	2f/]
.	.	4c\	4e/
.	.	4B\	4d/
.	.	2c\	1e
.	.	[2A/	.
=84	=84	=84	=84
0r	0r	2A/]	1A
.	.	4G#i/	.
.	.	4F#i/	.
.	.	1G#i	1B
=85	=85	=85	=85
0r	0r	1A	0A
.	.	1c	.
=86	=86	=86	=86
0r	0r	0B	1r
.	.	.	[1g
=87	=87	=87	=87
0r	0r	0E	2g/]
.	.	.	2g/
.	.	.	1g
=88	=88	=88	=88
0r	0r	1A	1f
.	.	1B-	1d
=89	=89	=89	=89
0r	0r	1G	0e
.	.	[1A	.
=90	=90	=90	=90
0r	0r	1A]	1c
.	.	[1D	1d
=91	=91	=91	=91
0r	0r	1D]	2A/
.	.	.	1f
.	.	1r	.
.	.	.	[2e/
=92	=92	=92	=92
0r	0r	1c	2e/]
.	.	.	4d/
.	.	.	4c/
.	.	1d	1B
=93	=93	=93	=93
0r	0r	2A/	1.A
.	.	1f	.
.	.	[2e\	2G/
=94	=94	=94	=94
0r	0r	2e\]	2A/
.	.	4d\	2B/
.	.	4c\	.
.	.	1B	2.G#i/
.	.	.	4F#i/
=95	=95	=95	=95
1.AA	0r	1.A	1A
.	.	.	1r
2BB/	.	2G/	.
=96	=96	=96	=96
2C/	0r	2A/	2r
2D\	.	2B\	1d
1BB	.	2.G#i/	.
.	.	.	4c/
.	.	4F#i/	4B/
=97	=97	=97	=97
1AA	0r	0A	2.c/
.	.	.	4d/
2r	.	.	2e/
[2D\	.	.	2d/
=98	=98	=98	=98
2D\]	0r	0r	1f
4C/	.	.	.
4BB/	.	.	.
2C/	.	.	2.e/
2D\	.	.	.
.	.	.	4f/
=99	=99	=99	=99
2E\	0r	0r	2g/
2D\	.	.	1a
1F	.	.	.
.	.	.	4g/
.	.	.	4f/
=100	=100	=100	=100
2.E\	0r	0r	1g
4F\	.	.	.
2G\	.	.	1e
[2A\	.	.	.
=101	=101	=101	=101
2A\]	0r	0r	2c/
4G\	.	.	2.d/
4F\	.	.	.
1G	.	.	.
.	.	.	4c/
.	.	.	4B/
.	.	.	4A/
=102	=102	=102	=102
1E	0r	0r	2G/
.	.	.	1c
2C/	.	.	.
[2D\	.	.	2B/
=103	=103	=103	=103
4D\]	0r	0r	2A/
4C/	.	.	.
4BB/	.	.	1d
4AA/	.	.	.
2GG/	.	.	.
2AA/	.	.	[2c/
=104	=104	=104	=104
2C/	0r	1r	4c/]
.	.	.	4B/
2D\	.	.	1A
1BB	.	2.d\	.
.	.	.	2G#i/
.	.	4e\	.
=105	=105	=105	=105
2AA/	0r	2f\	1A
2.A\	.	1e	.
.	.	.	1r
4G\	.	.	.
4F\	.	4d\	.
4E\	.	4c\	.
=106	=106	=106	=106
1F	0r	1d	2.a/
.	.	.	4b\
2.E\	.	1e	2cc\
.	.	.	[2b\
4F\	.	.	.
=107	=107	=107	=107
2G\	0r	2d\	2b\]
2A\	.	2.c\	4a/
.	.	.	4g/
1F	.	.	1a
.	.	4B\	.
.	.	2A/	.
=108	=108	=108	=108
1E	0r	2G/	1b
.	.	1e	.
2C/	.	.	2cc\
[2G\	.	[2d\	[2b\
=109	=109	=109	=109
2G\]	0r	2d\]	4b\]
.	.	.	4a/
2A\	.	2c\	1a
1E	.	1B	.
.	.	.	2g#i/
=110	=110	=110	=110
[0AA	0r	0A	3%4a
.	.	.	3%2e
=111	=111	=111	=111
3%2AA]	0r	0c	3%2a
3%2r	.	.	3%2g
3%2C	.	.	3%2e
=112	=112	=112	=112
3%2D	0r	0A	3%2f
1F	.	.	3%2d
.	.	.	3c/
3E\	.	.	3d/
=113	=113	=113	=113
3%4C	0r	0c	3%4e
[3%2AA	.	.	[3%2c
=114	=114	=114	=114
3%2AA]	0r	0A	3%2c]
3%2C	.	.	3%4A
3%2D	.	.	.
=115	=115	=115	=115
3%2C	0r	0c	3%2r
1F	.	.	1a
3E\	.	.	3g/
=116	=116	=116	=116
3%2F	0r	1.A	3f/
.	.	.	3e/
3%2D	.	.	3%2f
[3%2C	.	.	3e/
.	.	2G/	.
.	.	.	[3g/
=117	=117	=117	=117
3C/]	0r	1.G	3g/]
3D\	.	.	3f/
3%4E	.	.	3e/
.	.	.	6d/
.	.	.	6c/
.	.	.	3%2B
.	.	4F/	.
.	.	4G/	.
=118	=118	=118	=118
3%2AA	0r	0A	[0A
3%2D	.	.	.
3%2C	.	.	.
=119	=119	=119	=119
1AA	0r	0r	0A]
3BB/	.	.	.
3%2C	.	.	.
=120	=120	=120	=120
[0D	0r	0A	0r
=121	=121	=121	=121
0D]	0r	0d	0r
=122	=122	=122	=122
0A	0r	1c	0r
.	.	[1e	.
=123	=123	=123	=123
0G#	0r	2e\]	0r
.	.	4d\	.
.	.	4c\	.
.	.	1B	.
=124	=124	=124	=124
0A	0r	1r	0r
.	.	[1e	.
=125	=125	=125	=125
1G	0r	1e]	0r
[1F	.	1d	.
=126	=126	=126	=126
1F]	0r	0c	0r
[1E	.	.	.
=127	=127	=127	=127
1E]	0r	0B	0r
1D	.	.	.
=128	=128	=128	=128
1E	0r	1G	0r
1AA	.	2A/	.
.	.	[2c\	.
=129	=129	=129	=129
1r	0r	4c\]	0r
.	.	4B\	.
.	.	2A/	.
[1C	.	2G/	.
.	.	[2A/	.
=130	=130	=130	=130
2C/]	0r	2A/]	0r
2BB/	.	4G/	.
.	.	4F/	.
2C/	.	2E/	.
[2D\	.	[2F/	.
=131	=131	=131	=131
2D\]	0r	2F/]	0r
4C/	.	2G/	.
4BB/	.	.	.
1C	.	1E	.
=132	=132	=132	=132
1D	0r	1D	0r
1F	.	2r	.
.	.	2A/	.
=133	=133	=133	=133
1G	0r	2B\	0r
.	.	1d	.
1A	.	.	.
.	.	2c\	.
=134	=134	=134	=134
1D	0r	2B\	0r
.	.	1A	.
2C/	.	.	.
[2E\	.	2G/	.
=135	=135	=135	=135
2E\]	0r	2E/	0r
4D\	.	1A	.
4C/	.	.	.
1BB	.	.	.
.	.	2G#i/	.
=136	=136	=136	=136
0AA	0r	1A	0r
.	.	1r	.
=137	=137	=137	=137
2r	0r	1f	0r
1A	.	.	.
.	.	1e	.
2G\	.	.	.
=138	=138	=138	=138
2A\	0r	2c\	0r
2F\	.	2d\	.
2G\	.	2e\	.
2A\	.	[2f\	.
=139	=139	=139	=139
1D	0r	4f\]	0r
.	.	4e\	.
.	.	2.d\	.
1E	.	.	.
.	.	4c#i\	.
.	.	4c#i\	.
.	.	4B\	.
=140	=140	=140	=140
[0D	0r	0d	0r
=141	=141	=141	=141
0D]	0r	2r	0r
.	.	2D/	.
.	.	2F/	.
.	.	2G/	.
=142	=142	=142	=142
1r	0r	1A	0r
[1D	.	2D/	.
.	.	[2F/	.
=143	=143	=143	=143
2D\]	0r	2F/]	0r
4C/	.	4E/	.
4BB/	.	4D/	.
1C	.	1E	.
=144	=144	=144	=144
1D	0r	1D	0r
2C/	.	[1A	.
[2D\	.	.	.
=145	=145	=145	=145
2D\]	0r	2A/]	0r
4C/	.	2B\	.
4BB/	.	.	.
1AA	.	1c	.
=146	=146	=146	=146
2BB/	0r	2d\	0r
2AA/	.	1e	.
1C	.	.	.
.	.	[2A/	.
=147	=147	=147	=147
2D\	0r	2A/]	0r
1E	.	2G/	.
.	.	[1c	.
[2AA/	.	.	.
=148	=148	=148	=148
2AA/]	0r	2c\]	0r
2GG/	.	2B\	.
[1C	.	2A/	.
.	.	4G/	.
.	.	4F/	.
=149	=149	=149	=149
2C/]	0r	2E/	0r
2D\	.	1A	.
1BB	.	.	.
.	.	2G#i/	.
=150	=150	=150	=150
0AA	[0c	0A	0r
=151	=151	=151	=151
1r	0c_	0F	0a
1A	.	.	.
=152	=152	=152	=152
1F	0c_	1f	1a
1F	.	1f	1a
=153	=153	=153	=153
0C	0c]	0e	0g
=154	=154	=154	=154
0D	[0A	0d	0f
=155	=155	=155	=155
1C	0A_	1e	1e
2D\	.	2d\	[1f
[2F\	.	2c\	.
=156	=156	=156	=156
2F\]	0A_	2A/	2f/]
2F\	.	4G/	4e/
.	.	4F/	4d/
1C	.	1E	[1e
=157	=157	=157	=157
0D	0A]	0F	2e/]
.	.	.	2d/
.	.	.	2d/
.	.	.	2c/
=158	=158	=158	=158
[0AA	[0c	[0E	0e
=159	=159	=159	=159
0AA]	0c]	0E]	0A
=160	=160	=160	=160
0D	0A	0F	1r
.	.	.	1f
=161	=161	=161	=161
[0C	0r	1G	1e
.	.	2A/	2f/
.	.	2G/	[2g/
=162	=162	=162	=162
0C]	0c	1E	4g/]
.	.	.	4f/
.	.	.	4e/
.	.	.	4d/
.	.	1G	1e
=163	=163	=163	=163
0D	[0A	0F	1d
.	.	.	1f
=164	=164	=164	=164
1C	0A]	1r	1e
1D	.	1F	2d/
.	.	.	2c/
=165	=165	=165	=165
1E	0r	1G	1B
1AA	.	1A	2A/
.	.	.	[2c/
=166	=166	=166	=166
1D	0r	2.F/	2c/]
.	.	.	1B
.	.	4E/	.
1C	.	[1E	.
.	.	.	[2A/
=167	=167	=167	=167
0BB	0r	2E/]	2A/]
.	.	2D/	4G#i/
.	.	.	4F#i/
.	.	2D/	1G#i
.	.	2C/	.
=168	=168	=168	=168
[0AA	0r	0E	0A
=169	=169	=169	=169
0AA_	0c	1.A	1r
.	.	.	[1a
.	.	2B\	.
=170	=170	=170	=170
0AA]	0A	2c\	0a]
.	.	2d\	.
.	.	1e	.
=171	=171	=171	=171
1r	1c	1A	1a
[1D	1d	2r	[1a
.	.	[2A/	.
=172	=172	=172	=172
1D]	1f	2A/]	2a/]
.	.	2F/	2b\
1C	2e\	2G/	1cc
.	[2c\	[2A/	.
=173	=173	=173	=173
1F	2c\]	2A/]	1a
.	2A/	2F/	.
1E	2B\	1G	1g
.	2c\	.	.
=174	=174	=174	=174
1D	1d	0A	2f/
.	.	.	2g/
1F	1A	.	[1a
=175	=175	=175	=175
0E	0B	0e	2a/]
.	.	.	2g#i/
.	.	.	2g#i/
.	.	.	2f#i/
=176	=176	=176	=176
[0AA	[0A	1r	0a
.	.	1c	.
=177	=177	=177	=177
0AA]	0A]	1A	0r
.	.	1c	.
=178	=178	=178	=178
0AA	1r	0A	0e
.	1c	.	.
=179	=179	=179	=179
1r	1A	1D	1f
[1AA	1c	1E	[1e
=180	=180	=180	=180
1AA]	0A	0C	0e]
1AA	.	.	.
=181	=181	=181	=181
[0BB-	3%4F	[0D	0d
.	3%2D	.	.
=182	=182	=182	=182
0BB-]	3%2F	0D]	1d
.	3%4G	.	.
.	.	.	1d
=183	=183	=183	=183
0AA	[0A	0E	0c
=184	=184	=184	=184
1r	0A_	1F	1d
1AA	.	2E/	2e/
.	.	[2A/	[2f/
=185	=185	=185	=185
2D\	0A]	4A/]	2f/]
.	.	4G/	.
2C/	.	2E/	2e/
1D	.	2F/	1d
.	.	2G/	.
=186	=186	=186	=186
1AA	0r	1A	2e/
.	.	.	2c/
2BB/	.	1G	2d/
[2C/	.	.	[2e/
=187	=187	=187	=187
2C/]	0G	1c	2e/]
4BB/	.	.	4d/
4AA/	.	.	4c/
1GG	.	1d	1B
=188	=188	=188	=188
[0AA	[0E	2c\	0A
.	.	2A/	.
.	.	4c\	.
.	.	4d\	.
.	.	[2e\	.
=189	=189	=189	=189
0AA]	0E]	4e\]	0r
.	.	4d\	.
.	.	4c\	.
.	.	4B\	.
.	.	1c	.
=190	=190	=190	=190
1BB-	1D	1d	1.d
1GG	1G	1B	.
.	.	.	4c/
.	.	.	4B/
=191	=191	=191	=191
1.AA	1E	1A	1.c
.	[1A	[1c	.
2BB/	.	.	2d/
=192	=192	=192	=192
2C/	1A]	1c]	2e/
2D\	.	.	2f/
1E	[1G	1B	2g/
.	.	.	2f/
=193	=193	=193	=193
1C	1G]	1c	2.e/
.	.	.	4d/
1D	1F	[1A	[1d
=194	=194	=194	=194
0AA	0E	1A]	2d/]
.	.	.	2c#i/
.	.	1G	2c#i/
.	.	.	2B/
=195	=195	=195	=195
1r	0D	1A	1.d
[1D	.	[1F	.
.	.	.	2e/
=196	=196	=196	=196
1D]	0r	1F]	1f
1C	.	1E	1g
=197	=197	=197	=197
1D	0r	1F	1f
1C	.	1G	[1e
=198	=198	=198	=198
[0AA	[0c	1.A	1e]
.	.	.	[1c
.	.	4G/	.
.	.	4F/	.
=199	=199	=199	=199
0AA]	1c]	0E	0c]
.	[1A	.	.
=200	=200	=200	=200
0D	0A]	0F	1A
.	.	.	1r
=201	=201	=201	=201
1C	0r	1G	1e
1D	.	1F	1f
=202	=202	=202	=202
1C	[0c	2E/	1g
.	.	2.A/	.
1AA	.	.	[1a
.	.	4B\	.
.	.	4c\	.
.	.	4d\	.
=203	=203	=203	=203
1C	1c]	1e	2a/]
.	.	.	2g/
1D	[1A	1d	2f/
.	.	.	4e/
.	.	.	4d/
=204	=204	=204	=204
1A	0A]	1c	2e/
.	.	.	2.f/
1F	.	1A	.
.	.	.	4g/
.	.	.	[2a/
=205	=205	=205	=205
2E\	0r	0B	2a/]
2.E\	.	.	4g#i/
.	.	.	4f#i/
.	.	.	1g#i
4D\	.	.	.
2BB/	.	.	.
=206	=206	=206	=206
2C/	0r	1A	0a
2.D\	.	.	.
.	.	1f	.
4E\	.	.	.
2F\	.	.	.
=207	=207	=207	=207
1C	1c	1e	1g
1D	[1A	2d\	1f
.	.	[2d\	.
=208	=208	=208	=208
0AA	1A]	2d\]	0e
.	.	4c#i\	.
.	.	4B\	.
.	1A	1c#i	.
=209	=209	=209	=209
1BB-	0r	1d	1d
2AA/	.	2c\	1r
[2D\	.	2A/	.
=210	=210	=210	=210
2D\]	1r	4B\	1d
.	.	4A/	.
2BB/	.	4G/	.
.	.	4F/	.
1C	1c	1E	1g
=211	=211	=211	=211
1D	[0A	2r	1f
.	.	2D/	.
2C/	.	2E/	2e/
[2D\	.	2D/	2f/
=212	=212	=212	=212
4D\]	0A]	1F	1d
4C/	.	.	.
2D\	.	.	.
1AA	.	1E	1c
=213	=213	=213	=213
1D	1r	2r	2d/
.	.	2F/	2f/
1C	1c	2G/	1e
.	.	2A/	.
=214	=214	=214	=214
1D	0A	2.F/	1d
.	.	4G/	.
1AA	.	2A/	1c
.	.	2B\	.
=215	=215	=215	=215
1E	1r	1G	1B
[1AA	1c	1A	1A
=216	=216	=216	=216
1AA]	1A	1r	1c
1AA	1r	[1e	1r
=217	=217	=217	=217
1.A	0r	2e\]	0r
.	.	2e\	.
.	.	1e	.
2A\	.	.	.
=218	=218	=218	=218
1A	0r	1c	0r
[1D	.	1d	.
=219	=219	=219	=219
1D]	0r	1f	0r
1C	.	[1e	.
=220	=220	=220	=220
1D	0r	2e\]	0r
.	.	2d\	.
1F	.	[1d	.
=221	=221	=221	=221
0E	0r	2d\]	0r
.	.	4c#i\	.
.	.	4B\	.
.	.	1c#i	.
=222	=222	=222	=222
[0D	0r	1d	0r
.	.	1r	.
=223	=223	=223	=223
0D]	0r	1A	0r
.	.	1A	.
=224	=224	=224	=224
1r	0r	1c	0r
1D	.	1B	.
=225	=225	=225	=225
1F	0r	1A	0r
1F	.	1d	.
=226	=226	=226	=226
1E	0r	1c	0r
1D	.	1f	.
=227	=227	=227	=227
1G	0r	1e	0r
1F	.	[1d	.
=228	=228	=228	=228
1B-	0r	2d\]	0r
.	.	4c\	.
.	.	4B\	.
1A	.	1c	.
=229	=229	=229	=229
1.G	0r	1r	0r
.	.	1d	.
4F\	.	.	.
4E\	.	.	.
=230	=230	=230	=230
1F	0r	1A	0r
1D	.	1B	.
=231	=231	=231	=231
1AA	0r	2c\	0r
.	.	1A	.
1BB	.	.	.
.	.	2G/	.
=232	=232	=232	=232
0C	0r	2A/	0r
.	.	4G/	.
.	.	4F/	.
.	.	1E	.
=233	=233	=233	=233
1D	0r	1D	0r
2r	.	1F	.
2D\	.	.	.
=234	=234	=234	=234
2E\	0r	2G/	0r
2C/	.	1A	.
1D	.	.	.
.	.	2B\	.
=235	=235	=235	=235
2AA/	0r	2c\	0r
2BB/	.	1d	.
2GG/	.	.	.
2AA/	.	2c\	.
=236	=236	=236	=236
1D	0r	4d\	0r
.	.	4c\	.
.	.	4B\	.
.	.	4A/	.
1C	.	[1A	.
=237	=237	=237	=237
0BB	0r	2A/]	0r
.	.	2G#i/	.
.	.	2G#i/	.
.	.	2F#i/	.
=238	=238	=238	=238
*M3/1	*M3/1	*M3/1	*M3/1
*met(3)	*met(3)	*met(3)	*met(3)
[0.AA	1r	[0.A	[0.e
.	1r	.	.
.	[1c	.	.
=239	=239	=239	=239
1AA]	1c]	1A]	1e]
0D	0A	1r	0f
.	.	1F	.
=240	=240	=240	=240
1C	1r	1G	1e
1.F	1r	2A/	0a
.	.	2B\	.
.	[1c	2c\	.
2E\	.	2d\	.
=241	=241	=241	=241
1C	1c]	1e	1g
1D	0A	1d	1f
[1F	.	1c	[1a
=242	=242	=242	=242
2F\]	1r	1A	2a/]
2E\	.	.	2g/
1D	1r	1B	1f
1C	[1c	1c	1e
=243	=243	=243	=243
1AA	1c]	1.e	1.a
0E	0B	.	.
.	.	2d\	2g#i/
.	.	1e	2g#i/
.	.	.	2f#i/
=244	=244	=244	=244
1.AA	0.A	0c	0a
2BB/	.	.	.
1C	.	1c	1e
=245	=245	=245	=245
1D	1F	1A	1f
0BB	0G	1B	0d
.	.	1d	.
=246	=246	=246	=246
0AA	0A	[0.c	1r
.	.	.	1.f
[1C	1E	.	.
.	.	.	2e/
=247	=247	=247	=247
1C]	1G	1c]	1.e
0D	0F	1A	.
.	.	.	2d/
.	.	1B	2d/
.	.	.	2c/
=248	=248	=248	=248
0.AA	0E	1.A	0e
.	.	2G/	.
.	[1A	1E	1c
=249	=249	=249	=249
1D	0.A_	1F	1d
1AA	.	0E	1c
1C	.	.	1e
=250	=250	=250	=250
1D	1A]	1r	2d/
.	.	.	2c/
0E	0G#i	1r	1.B
.	.	[1e	.
.	.	.	2A/
=251	=251	=251	=251
0AA	1.A	2e\]	1A
.	.	2d\	.
.	.	2c\	1.a
.	2B\	2B\	.
1r	1c	1A	.
.	.	.	2a/
=252	=252	=252	=252
0D	1d	1.A	1.a
.	1f	.	.
.	.	2F/	2b\
1C	[1e	1G	[1cc
=253	=253	=253	=253
0AA	1e]	1A	1cc]
.	1c	1.A	0a
1F	1A	.	.
.	.	2F/	.
=254	=254	=254	=254
1E	1c	1G	1g
1D	1d	2A/	1f
.	.	2B\	.
1C	1e	1c	1e
=255	=255	=255	=255
1F	1A	1d	1.a
0E	0B	0e	.
.	.	.	4g#i/
.	.	.	4f#i/
.	.	.	1g#i
=256	=256	=256	=256
0AA	[0.A	0c	0a
[1D	.	[1F	1r
=257	=257	=257	=257
1D]	1A]	1F]	0a
0C	1r	0E	.
.	1c	.	1g
=258	=258	=258	=258
1D	1A	1F	1f
1C	1r	1G	1.e
[1AA	1c	1A	.
.	.	.	2d/
=259	=259	=259	=259
0.AA]	1A	1E	2c/
.	.	.	2B/
.	1r	1c	1A
.	1c	1A	1r
=260	=260	=260	=260
1r	1A	0F	1c
1D	1r	.	1d
1C	1c	1G	1e
=261	=261	=261	=261
1D	0A	1F	1f
1AA	.	1.c	1.e
1C	1G	.	.
.	.	2B\	2d/
=262	=262	=262	=262
1D	1F	0A	1.d
0AA	0E	.	.
.	.	.	2c#i/
.	.	1A	2c#i/
.	.	.	2B/
=263	=263	=263	=263
1r	0.D	0A	0d
0D	.	.	.
.	.	[1d	1A
=264	=264	=264	=264
1BB	0.r	1d]	1B
1AA	.	0e	1.c
1C	.	.	.
.	.	.	2B/
=265	=265	=265	=265
1D	0.r	2d\	0A
.	.	2c\	.
0E	.	1.B	.
.	.	.	1G#i
.	.	4A/	.
.	.	4B\	.
=266	=266	=266	=266
*M2/1	*M2/1	*M2/1	*M2/1
*met(C|)	*met(C|)	*met(C|)	*met(C|)
[0AA	1r	1c	0A
.	1c	1A	.
=267	=267	=267	=267
0AA]	1A	1r	0a
.	1r	[1c	.
=268	=268	=268	=268
0C	1r	2c\]	0g
.	.	2d\	.
.	1c	1e	.
=269	=269	=269	=269
0D	1A	1d	0f
.	1r	2d\	.
.	.	[2A/	.
=270	=270	=270	=270
1C	1r	2A/]	1e
.	.	2G/	.
1AA	1c	1A	[1e
=271	=271	=271	=271
0D	1A	0F	2e/]
.	.	.	4d/
.	.	.	4c/
.	1r	.	1d
=272	=272	=272	=272
1AA	1r	0E	0e
1C	1c	.	.
=273	=273	=273	=273
1D	1A	0r	1f
1E	1G	.	1g
=274	=274	=274	=274
1F	1c	0r	1a
1D	1d	.	[1a
=275	=275	=275	=275
0E	0B	0e	2a/]
.	.	.	2g#i/
.	.	.	2.g#i/
.	.	.	4f#i/
=276	=276	=276	=276
0AAl	0Al	0c 0el	0al
!!LO:LB:i:g=z
=277||	=277||	=277||	=277||
*>C	*>C	*>C	*>C
*clefF4	*clefGv2	*clefGv2	*clefG2
*k[]	*k[]	*k[]	*k[]
*M2/1	*M2/1	*M2/1	*M2/1
*met(C|)	*met(C|)	*met(C|)	*met(C|)
!!section: Confiteor
!!!OMD: Confiteor
1.AA	0r	1.A	0a
2BB/	.	4G/	.
.	.	4F/	.
=278	=278	=278	=278
1C	0r	1E	1g
[1D	.	1D	[1f
=279	=279	=279	=279
2D\]	0r	1F	2f/]
2C/	.	.	2e/
1BB	.	1G	1d
=280	=280	=280	=280
0AA	0r	2.A/	1c
.	.	4B\	.
.	.	1c	1e
=281	=281	=281	=281
0D	1f	1d	1d
.	1d	[1d	1f
=282	=282	=282	=282
0A	0r	2d\]	0e
.	.	4c#i\	.
.	.	4B\	.
.	.	1c#i	.
=283	=283	=283	=283
0D	1f	2d\	1d
.	.	4c\	.
.	.	4B\	.
.	1d	2A/	1f
.	.	2d\	.
=284	=284	=284	=284
1E	0r	2.c\	1g
.	.	4B\	.
2D\	.	1d	[1a
[2F\	.	.	.
=285	=285	=285	=285
4F\]	1f	1A	1a]
4E\	.	.	.
2F\	.	.	.
1G	1d	2r	1b
.	.	2G/	.
=286	=286	=286	=286
1.F	0r	2A/	2a/
.	.	2F/	1cc
.	.	2A/	.
2G\	.	2B\	2b\
=287	=287	=287	=287
2F\	1f	2c\	1a
2D\	.	2d\	.
2G\	1d	2.B\	1g
4F\	.	.	.
4E\	.	8A/L	.
.	.	8G/J	.
=288	=288	=288	=288
2D\	0r	1A	2f/
2F\	.	.	2d/
1C	.	2G/	1e
.	.	2E/	.
=289	=289	=289	=289
1D	1f	2F/	1d
.	.	1A	.
1BB-	1d	.	1r
.	.	2G/	.
=290	=290	=290	=290
2.AA/	0r	2A/	1a
.	.	4G/	.
4BB/	.	4F/	.
2C/	.	2E/	2g/
[2D\	.	2D/	[2f/
=291	=291	=291	=291
4D\]	1f	1F	4f/]
4C/	.	.	4e/
2D\	.	.	4d/
.	.	.	4c/
1GG	1d	1G	1B
=292	=292	=292	=292
[0D	0r	1F	1A
.	.	2D/	[1d
.	.	[2F/	.
=293	=293	=293	=293
0D]	1f	2F/]	2d/]
.	.	2G/	2e/
.	1d	2A/	1f
.	.	2B\	.
=294	=294	=294	=294
1A	0r	1.c	1e
1F	.	.	[1a
.	.	[2A/	.
=295	=295	=295	=295
1D	1f	2A/]	1a]
.	.	2F/	.
1r	1d	2G/	1g
.	.	2B-i\	.
=296	=296	=296	=296
1D	0r	2.A/	1f
.	.	4B\	.
2C/	.	2c\	2e/
[2D\	.	[2F/	[2d/
=297	=297	=297	=297
4D\]	1f	4F/]	4d/]
4E\	.	4G/	4c/
2F\	.	1A	2A/
1G	1d	.	1B
.	.	2G/	.
=298	=298	=298	=298
2D\	1f	1A	2A/
1F	.	.	1a
.	1d	2A/	.
4E\	.	[2c\	4g/
4D\	.	.	4f/
=299	=299	=299	=299
0E	0r	2c\]	4g/
.	.	.	4f/
.	.	4B\	4e/
.	.	4A/	4d/
.	.	1G	2.c#i/
.	.	.	4B/
=300	=300	=300	=300
1D	1f	1A	1d
1GG	1d	1B-	1r
=301	=301	=301	=301
2AA/	1r	1A	1c
4BB/	.	.	.
4C/	.	.	.
2D\	1f	1r	1A
[2D\	.	.	.
=302	=302	=302	=302
4D\]	1d	0r	0B
4C/	.	.	.
4BB/	.	.	.
4AA/	.	.	.
2GG/	1r	.	.
2FF/	.	.	.
=303	=303	=303	=303
3%4AA	1c	3%4E	3%2A
.	.	.	3%2c
.	1A	.	.
3%2D	.	3%2F	3%2d
=304	=304	=304	=304
3%2C	0r	3%2G	3%2e
3%4D	.	3%4F	3%2d
.	.	.	3%2f
=305	=305	=305	=305
3%2C	1c	3%2r	3%4e
3%2AA	.	3%2c	.
.	1A	.	.
3%2D	.	3%2d	3%2f
=306	=306	=306	=306
3%2C	0r	3%2e	3%2g
3%4F	.	3%2c	3%4a
.	.	3%2A	.
=307	=307	=307	=307
3%2E	1c	3%2r	3%2g
3%2C	.	3%2G	3%4e
.	1A	.	.
3%2AA	.	3%2A	.
=308	=308	=308	=308
3%2C	0r	3%2E	3%2e
3%4D	.	3%4F	1d
.	.	.	3c/
=309	=309	=309	=309
3%2AA	1c	3%4E	3%2e
3%2C	.	.	3%2c
.	1A	.	.
3%2D	.	3%2F	3%2A
=310	=310	=310	=310
3%2AA	0r	1A	3%2c
3%4E	.	.	3%4B
.	.	3G#i/	.
.	.	3%2G#i	.
=311	=311	=311	=311
3%4AA	1c	3%2A	3%2A
.	.	1E	1c
.	1A	.	.
[3%2C	.	.	.
.	.	3C/	3e/
=312	=312	=312	=312
3%2C]	0r	3%2E	3c/
.	.	.	6B/
.	.	.	6A/
3%4BB	.	1D	1G#i
.	.	3C/	3F#i/
=313	=313	=313	=313
3%2AA	1c	3%4E	3%2A
1C	.	.	1e
.	1A	.	.
.	.	3%2r	.
3D\	.	.	3f/
=314	=314	=314	=314
3%2E	0r	3%2e	3%2g
3%2F	.	3%2c	3%2a
3%2D	.	3%2d	3%2d
=315	=315	=315	=315
3%2C	1c	3%2e	3%2g
3%2AA	.	1e	1cc
.	1A	.	.
[3%2C	.	.	.
.	.	3d\	3b\
=316	=316	=316	=316
3C/]	0r	3%2c	1a
3D\	.	.	.
3%4E	.	3%4B	.
.	.	.	3g#i/
.	.	.	3g#i/
.	.	.	3f#i/
=317	=317	=317	=317
3%4AA	1c	3%2A	3%4a
.	.	3%2c	.
.	1A	.	.
3%2D	.	3%2d	3%2f
=318	=318	=318	=318
3%2E	0r	3%2B	3%2g
1F	.	3%2A	3%2a
.	.	[3%2c	3%2f
3E\	.	.	.
=319	=319	=319	=319
3%4C	1c	3%2c]	3%2e
.	.	3%2c	1g
.	1A	.	.
3%2D	.	3%2F	.
.	.	.	3f/
=320	=320	=320	=320
3%2F	0r	3%2A	1f
3%4C	.	3%4G	.
.	.	.	3e/
.	.	.	3e/
.	.	.	3d/
=321	=321	=321	=321
3%2r	1c	3%4F	[0f
1F	.	.	.
.	1A	.	.
.	.	3%2D	.
3E\	.	.	.
=322	=322	=322	=322
3%2D	1r	3%2F	3%2f]
3%2C	.	3%2G	3%4e
.	1c	.	.
3%2AA	.	3%2A	.
=323	=323	=323	=323
0D	1A	0F	1d
.	1r	.	1f
=324	=324	=324	=324
1.C	1c	1G	2e/
.	.	.	1e
.	1A	1r	.
2D\	.	.	4d/
.	.	.	4c/
=325	=325	=325	=325
1E	1r	0e	2B/
.	.	.	1g
1C	1c	.	.
.	.	.	4f/
.	.	.	4e/
=326	=326	=326	=326
1D	1A	1d	1f
2C/	1r	2e\	2e/
[2F\	.	2c\	[2a/
=327	=327	=327	=327
4F\]	1c	2f\	2a/]
4E\	.	.	.
2C/	.	2e\	2g/
2D\	1A	1d	2f/
2AA/	.	.	2e/
=328	=328	=328	=328
1D	1r	1A	2f/
.	.	.	4e/
.	.	.	4d/
1C	1c	2G/	2e/
.	.	2A/	[2c/
=329	=329	=329	=329
2D\	1A	2F/	4c/]
.	.	.	4B/
2C/	.	1E	1A
1BB	1r	.	.
.	.	2D/	2G#i/
=330	=330	=330	=330
0AA	1c	0E	1A
.	1A	.	1r
=331	=331	=331	=331
0AA;	0c;	0e;	0a;
=332	=332	=332	=332
0C;	0c;	0e;	0g;
=333	=333	=333	=333
0D;	0A;	0d;	0f;
=334	=334	=334	=334
0AA;	0c;	0e;	0a;
=335	=335	=335	=335
[0E	[0B;	[0e	[0g#i
=336	=336	=336	=336
0E;]	0B;]	0e;]	0g#;]
=337	=337	=337	=337
0AAl	0Al	0c 0el	0al
==	==	==	==
*-	*-	*-	*-
!!!RDF**kern: l=long note in original notation
!!!RDF**kern: i=editorial accidental
!!!RDF**kern: V=start of tuplet marker
!!!RDF**kern: Z=end of tuplet marker
!!!ENC:	Chris Gage 11-21-2013
!!!END:	2015/03/05/
!!!EED:	Jesse Rodin
!!!EEV:	2015/03/09/
!!!ONB:	Translated from MusicXML and edited on 2015/03/09/ by Craig Sapp
!!muse2ps: T^@{OPR}^u^@{ONM}{. }@{OTL}^C^@{COM}^i2I150v85,85,85,150Q16
